X:15
T:Flowing Tide, The
R:hornpipe
D:Oisin: Over the Moor to Maggie
Z:id:hn-hornpipe-15
M:C|
K:G
BA|~G3B dGBd|GBdg (3bag ag|(3efg (3ded (3Bcd ge|dBAG (3edB AF|
~G3B dGBd|GBdg (3bag ag|(3efg (3ded (3Bcd ge|dBAB G2:|
|:(3DEF|GFGB AGED|~g3e dBAG|(3cde (3Bcd (3ABc (3GAB|(3cBA (3BAG AGEG|
DGBc B2Bd|(3cBA (3BAG AGEG|DGBd gdBd|(3cBA GF G2:|
<end>
<start>
